X: 1
T: Bourr\'ee \`a Yvon Guilcher
R: bouree
Z: 2017 John Chambers <jc:trillian.mit.edu>
M: 3/8
L: 1/16
K: D
cB |\
A2B2c2 | d4 e2 | f2edef | defedB |\
A2B2c2 | d4 e2 | f2edef | d4 :|
|: ef |\
g2f2eg | f2d2e2 | f2edef | defdef |\
g2f2eg | f2d2e2 | f2edef | d4 :|
